to-do/raised-vector.svg

<svg xmlns="http://www.w3.org/2000/svg" xmlns:xlink="http://www.w3.org/1999/xlink" viewBox="-10 -10 650 650"><defs/><defs><linearGradient id="b"><stop offset="0" stop-color="#f8d266"/><stop offset="1" stop-color="#f17953"/></linearGradient><linearGradient id="a"><stop offset="0" stop-color="#f17953"/><stop offset="1" stop-color="#f8d266"/></linearGradient><linearGradient id="g" x1="-22.034" x2="243.294" y1="317.065" y2="372.15" gradientUnits="userSpaceOnUse" xlink:href="#a"/><linearGradient id="e" x1="358.508" x2="656.525" y1="405.381" y2="523.814" gradientUnits="userSpaceOnUse" xlink:href="#b"/><linearGradient id="h" x1="358.508" x2="656.525" y1="405.381" y2="523.814" gradientUnits="userSpaceOnUse" xlink:href="#b"/><linearGradient id="i" x1="-22.034" x2="243.294" y1="317.065" y2="372.15" gradientUnits="userSpaceOnUse" xlink:href="#a"/><path id="d" d="M536.44 95.33c12.95-12.96 33.96-12.96 46.92 0 14.08 14.08 32.84 32.85 46.92 46.92 12.96 12.96 12.96 33.97 0 46.93L274.79 544.67c-12.96 12.96-33.97 12.96-46.93 0-14.07-14.08-32.84-32.85-46.92-46.92-12.96-12.96-12.96-33.97 0-46.93 75.79-75.79 279.7-279.7 355.5-355.49z"/><path id="f" d="M321.71 450.82c12.96 12.96 12.96 33.97 0 46.93-14.08 14.07-32.85 32.84-46.92 46.92-12.96 12.96-33.97 12.96-46.93 0C179.54 496.35 58.04 374.85 9.72 326.52c-12.96-12.95-12.96-33.96 0-46.92 14.08-14.08 32.84-32.85 46.92-46.92 12.96-12.96 33.97-12.96 46.92 0C151.89 281 273.39 402.5 321.71 450.82z"/><filter id="c" width="1.052" height="1.071" x="-.026" y="-.035" color-interpolation-filters="sRGB"><feGaussianBlur stdDeviation="6.93"/></filter></defs><g filter="url(#c)" transform="translate(-5 -5)"><use width="100%" height="100%" fill="url(#e)" xlink:href="#d"/><use width="100%" height="100%" fill="url(#g)" xlink:href="#f"/></g><use width="100%" height="100%" fill="url(#h)" transform="translate(-5 -5)" xlink:href="#d"/><use width="100%" height="100%" fill="url(#i)" transform="translate(-5 -5)" xlink:href="#f"/></svg>

<?xml version="1.0" encoding="UTF-8" standalone="no"?>
<svg
   xmlns:dc="http://purl.org/dc/elements/1.1/"
   xmlns:cc="http://creativecommons.org/ns#"
   xmlns:rdf="http://www.w3.org/1999/02/22-rdf-syntax-ns#"
   xmlns:svg="http://www.w3.org/2000/svg"
   xmlns="http://www.w3.org/2000/svg"
   xmlns:xlink="http://www.w3.org/1999/xlink"
   xmlns:sodipodi="http://sodipodi.sourceforge.net/DTD/sodipodi-0.dtd"
   xmlns:inkscape="http://www.inkscape.org/namespaces/inkscape"
   version="1.1"
   preserveAspectRatio="xMidYMid meet"
   viewBox="-10 -10 650 650"
   width="640"
   height="640"
   id="svg18"
   sodipodi:docname="raised-vector.svg"
   inkscape:version="0.92.4 (5da689c313, 2019-01-14)"
   inkscape:export-filename="/home/victor/Work/Graphics/Icons/to-do/unelevated-16.png"
   inkscape:export-xdpi="2.4000001"
   inkscape:export-ydpi="2.4000001">
  <metadata
     id="metadata22">
    <rdf:RDF>
      <cc:Work
         rdf:about="">
        <dc:format>image/svg+xml</dc:format>
        <dc:type
           rdf:resource="http://purl.org/dc/dcmitype/StillImage" />
      </cc:Work>
    </rdf:RDF>
  </metadata>
  <sodipodi:namedview
     pagecolor="#ffffff"
     bordercolor="#666666"
     borderopacity="1"
     objecttolerance="10"
     gridtolerance="10"
     guidetolerance="10"
     inkscape:pageopacity="0"
     inkscape:pageshadow="2"
     inkscape:window-width="1366"
     inkscape:window-height="713"
     id="namedview20"
     showgrid="false"
     inkscape:zoom="0.36875"
     inkscape:cx="-196.82316"
     inkscape:cy="295.63763"
     inkscape:window-x="0"
     inkscape:window-y="31"
     inkscape:window-maximized="1"
     inkscape:current-layer="svg18" />
  <defs
     id="defs4">
    <linearGradient
       inkscape:collect="always"
       id="linearGradient841">
      <stop
         style="stop-color:#f8d266;stop-opacity:1"
         offset="0"
         id="stop837" />
      <stop
         style="stop-color:#f17953;stop-opacity:1"
         offset="1"
         id="stop839" />
    </linearGradient>
    <linearGradient
       inkscape:collect="always"
       id="linearGradient833">
      <stop
         style="stop-color:#f17953;stop-opacity:1"
         offset="0"
         id="stop829" />
      <stop
         style="stop-color:#f8d266;stop-opacity:1"
         offset="1"
         id="stop831" />
    </linearGradient>
    <path
       d="M536.44 95.33C549.39 82.37 570.4 82.37 583.36 95.33C597.44 109.41 616.2 128.18 630.28 142.25C643.24 155.21 643.24 176.22 630.28 189.18C554.49 264.97 350.58 468.88 274.79 544.67C261.83 557.63 240.82 557.63 227.86 544.67C213.79 530.59 195.02 511.82 180.94 497.75C167.98 484.79 167.98 463.78 180.94 450.82C256.73 375.03 460.64 171.12 536.44 95.33Z"
       id="caQOoIksc" />
    <path
       d="M321.71 450.82C334.67 463.78 334.67 484.79 321.71 497.75C307.63 511.82 288.86 530.59 274.79 544.67C261.83 557.63 240.82 557.63 227.86 544.67C179.54 496.35 58.04 374.85 9.72 326.52C-3.24 313.57 -3.24 292.56 9.72 279.6C23.8 265.52 42.56 246.75 56.64 232.68C69.6 219.72 90.61 219.72 103.56 232.68C151.89 281 273.39 402.5 321.71 450.82Z"
       id="hhvigNCWv" />
    <linearGradient
       inkscape:collect="always"
       xlink:href="#linearGradient833"
       id="linearGradient835"
       x1="-22.033899"
       y1="317.06482"
       x2="243.2944"
       y2="372.14957"
       gradientUnits="userSpaceOnUse" />
    <linearGradient
       inkscape:collect="always"
       xlink:href="#linearGradient841"
       id="linearGradient843"
       x1="358.50815"
       y1="405.38135"
       x2="656.52545"
       y2="523.81354"
       gradientUnits="userSpaceOnUse" />
    <linearGradient
       inkscape:collect="always"
       xlink:href="#linearGradient841"
       id="linearGradient897"
       gradientUnits="userSpaceOnUse"
       x1="358.50815"
       y1="405.38135"
       x2="656.52545"
       y2="523.81354" />
    <linearGradient
       inkscape:collect="always"
       xlink:href="#linearGradient833"
       id="linearGradient899"
       gradientUnits="userSpaceOnUse"
       x1="-22.033899"
       y1="317.06482"
       x2="243.2944"
       y2="372.14957" />
    <filter
       inkscape:collect="always"
       style="color-interpolation-filters:sRGB"
       id="filter901"
       x="-0.025987031"
       width="1.0519741"
       y="-0.035478689"
       height="1.0709574">
      <feGaussianBlur
         inkscape:collect="always"
         stdDeviation="6.929875"
         id="feGaussianBlur903" />
    </filter>
  </defs>
  <g
     id="g16"
     transform="translate(-5,-5)"
     style="filter:url(#filter901)"
     inkscape:export-xdpi="17.850632"
     inkscape:export-ydpi="17.850632">
    <g
       id="g14">
      <g
         id="g8">
        <use
           xlink:href="#caQOoIksc"
           id="use6"
           style="opacity:1;fill:url(#linearGradient843);fill-opacity:1"
           x="0"
           y="0"
           width="100%"
           height="100%" />
      </g>
      <g
         id="g12">
        <use
           xlink:href="#hhvigNCWv"
           id="use10"
           style="opacity:1;fill:url(#linearGradient835);fill-opacity:1"
           x="0"
           y="0"
           width="100%"
           height="100%" />
      </g>
    </g>
  </g>
  <g
     id="g16-3"
     transform="translate(-5,-5)">
    <g
       id="g14-5">
      <g
         id="g8-6">
        <use
           xlink:href="#caQOoIksc"
           id="use6-2"
           style="opacity:1;fill:url(#linearGradient897);fill-opacity:1"
           x="0"
           y="0"
           width="100%"
           height="100%" />
      </g>
      <g
         id="g12-9">
        <use
           xlink:href="#hhvigNCWv"
           id="use10-1"
           style="opacity:1;fill:url(#linearGradient899);fill-opacity:1"
           x="0"
           y="0"
           width="100%"
           height="100%" />
      </g>
    </g>
  </g>
</svg>
